X:1
T:Tous les regretz
T:Jean de Castro
T:Source : La fleur des chansons à 3---Louvain---P.Phalèse---1574. Editor : André Vierendeels (14/09/18) Notes : Original clefs : C1, C3, C4 Original note values have been halved Editorial accidentals above the staff
T:Tous les regretz
T:©
T:©
T:©
T:©
T:©
C:Jean de Castro
Z:©
%%score [ 1 [ 2 3 ] ]
L:1/8
Q:1/4=120
M:2/2
K:F
V:1 treble nm="Soprano" snm="S"
V:2 treble-8 nm="Tenor 1" snm="T 1"
V:3 treble-8 nm="Tenor 2" snm="T 2"
V:1
 z2 D4 E2- | E2 F4 G2 | z2 G2 G3 F | E6 A2- | A2 F3 E/D/ E2 | F2 C2 D4- | D2 E4 F2 | z4 G4- | %8
w: Tous les|_ re- gretz|qu'onc- ques fu-|rent au|_ mon- * * *|de, tous les|_ re- gretz,|tous|
 G4 A4 | =B4 c2 c2 | c3 B A2 F2 | E4 D2 G2- | G2 A4 =B2 | c2 c2 c2 =B2 | cc d3 c/=B/ c2 | %15
w: _ les|re- gretz, qu'onc-|ques fu- rent au|mon- de, tous|_ les re-|gretz qu'onc- ques fu-|rent au mon- * * *|
 A2 z B BA/G/ F2 | A2 G2 z d dc/B/ | A2 c2xB BA/G/ | FG A2 z G BA/G/ | FcAA GG ^F2 | G2 z d c2 B2 | %21
w: de, ve- nez _ _ _|vers moy, ve- nez _ _|_ vers ve- nez _ _|_ vers moy, ve- nez _ _|_ quel- que part que ie soy-|e, pre- nez mon|
 A2 z G2 F2 E | DB A2 G2 F2 | z4 A4 | A2 A2 G4 | z2 F2 E3 E | D2 B,2 A,4 | =B,2 D2 C2 C2 | %28
w: cueur, pre- nez mon|cueur, pre- nez mon cueur,|en|sa dou- leur,|en sa dou-|leur pro- fon-|de, et le fen-|
 D2 A2 A2 G2 | F2 z F F2 E2 | Dd/d<AA/ AA c2 | G2 z2 ddA>A | AA c2 G2 BB | A>A c2 z B A2 | =B8 |] %35
w: dez, et le fen-|dez, et le fen-|dez que soub- dai- ne- ment le voy-|e, que soub- dai- ne-|ment le voy- e, que soub-|dai- ne- ment le voy-|e.|
V:2
 G8 | A4 B4 | c4 z4 | z2 c2 c3 B | A2 A2 G4 | F2 A2 =B4- | B4 c4 | d2 f4 ed | e4 c2 d2 | d2 g2 e4 | %10
w: Tous|les re-|gretz|qu'onc- ques fu-|rent au mon-|de, tous les|_ re-|gretz qu'onc- * *|* ques fu-|rent au mon-|
 f2 c4 d2- | d^c/=B/ c2 d2 d2 | e4 f2 g2 | z2 e2 f2 d2 | a2 f2 e4 | d4 z d dc/B/ | A2 c2 G2 z f | %17
w: de, au mon-|* * * * de, tous|les re- gretz|qu'onc- ques fu-|rent au mon-|de, ve- nez, _ _|_ vers moy, ve-|
 fe/d/ c2 d2 G2 | z g f2 e2 dd- | d c2 d =Bc A2 | =B4 z2 g2 | f2 e2 d2 z c | B2 c4 d2- | %23
w: nez _ _ _ vers moy,|ve- nez vers moy quel-|* que part que ie soy-|e, pre-|nez mon cueur, pre-|nez mon cueur|
 d2 f2 f4- | f2 e2 e4 | z2 c2 c3 B | A2 G2 ^F4 | G2 z B A2 G2 | A2 A2 d2 B2 | A2 dd A>Acc | %30
w: _ en sa|_ dou- leur,|en sa dou-|leur pro- fon-|de, et le fen-|dez, et le fen-|dez que soub- dai- ne- ment le|
 B/c/d/e/ f2 c4 | z2 gg d>dff | c2 c2 z g2 g | f>f e2 d g2 ^f | g8 |] %35
w: voy- * * * * e,|que soub- dai- ne- ment le|voy- e, que soub-|dai- ne- ment le voy- *|e.|
V:3
 z8 | z8 | z4 c4 | c3 B A2 F2 | c4 C4 | z4 G4- | G4 A4 | B4 c2 c2 | c3 B A2 ^F2 | G4 A4 | z4 A4- | %11
w: ||Qu'onc-|ques fu- rent au|mon- de,|tous|_ les|re- gretz qu'onc-|ques fu- rent au|mon- de,|tous|
 A4 B4 | c4 d2 G2 | F2 C2 F2 G2 | A8 | D2 z G GF/E/ D2 | F2 C2 z B BA/G/ |"^b" F2 A2 G2 z d | %18
w: _ les|re- gretz qu'onc-|ques fu- rent au|mon-|de, ve- nez _ _ _|vers moy, ve- nez _ _|_ vers moy, ve-|
 dc/B/ A2 c2 G2 | z AFD GC D2 | G4 z4 | z d c2 B2 A2 | z G F2 E2 D2 | z2 d2 d4- | d2 c2 c4 | %25
w: nez _ _ _ vers moy|quel- que part que ie soy-|e,|pre- nez mon cueur,|pre- nez mon cueur|en sa-|* dou- leur|
 F4 C4 | D8 | z2 D2 F2 E2 | D4 z2 GG | D>DDD F2 C2 | z2 dd A>AAA | c2 G2 z2 dd | A>AAA c2 G2 | %33
w: pro- fon|de,|et le fen-|dez que soub-|dai- ne- ment le voy- e,|que soub- dai- ne- ment le|voy- e, que soub-|dai- ne- ment le voy- e,|
 ddA>A BG D2 | G8 |] %35
w: que soub- dai- ne- ment le voy-|e.|

